public/images/Homepage/logo/Daily Hive.svg

<svg xmlns="http://www.w3.org/2000/svg" width="382.695" height="82.945" viewBox="0 0 382.695 82.945">
  <g id="svgg" transform="translate(-5.145 -15.434)">
    <path id="path0" d="M5.145,47.91V80.386l14.308-.01c20.05-.013,25.858-1.674,33.872-9.688,17.809-17.809,9.5-47.8-15.061-54.378-2.245-.6-7.728-.863-18.168-.868L5.145,15.434V47.91M116.4,22.83v7.4H131.19V15.434H116.4v7.4m20.578,25.08V80.386h14.148V15.434H136.977V47.91m74.6,0V80.386h14.147V61.459l-3.03-3.077-3.031-3.077H252.09V80.386h14.148V15.434H252.09V34.361l3.031,3.077,3.03,3.076H225.723V15.434H211.576V47.91m61.093-25.08v7.4h14.148V15.434H272.669v7.4M36.656,29.687c7.934,3.769,11.254,9.049,11.254,17.9,0,13.215-8.2,20.549-22.99,20.572l-4.984.007V34.175l-3.377-3.3-3.376-3.3,9.968.211c9.179.194,10.248.344,13.5,1.891m45.162,3.8C74.246,34.811,64.952,42.8,64.952,47.989c0,1.277,14.9.082,16.406-1.315C84.65,43.623,91.852,44,94.5,47.369c2.439,3.1,2.083,3.253-8.486,3.612-15.853.54-21.731,4.362-21.69,14.106C64.378,78.3,83.381,86.237,93.86,77.419l1.96-1.649v4.658l7.235-.182,7.234-.182V63.987c0-18.729-.317-20.2-5.368-24.927-5.134-4.8-14.556-7.077-23.1-5.577M357,33.449c-21.336,4.51-25.1,35.151-5.492,44.743,13.122,6.42,34.969-.543,34.987-11.15,0-2.325-12.464-2.2-15.937.161a11.208,11.208,0,0,1-16.529-5.027l-1.006-2.408,16.576.04c9.117.021,16.965.03,17.44.019,2.159-.05-.366-11.456-3.68-16.62-5-7.791-16.145-11.917-26.359-9.758M116.4,56.913V80.428l7.234-.182,7.235-.182v-46.3l-7.235-.182L116.4,33.4V56.913m36.2-22.688c.189.453,2.715,6.032,5.615,12.4s7.4,16.315,10,22.109l4.733,10.533-3.6,8.759c-1.977,4.818-3.736,9.121-3.909,9.563-.241.616,1.468.8,7.311.791l7.625-.014L185.476,86c2.8-6.8,5.591-13.523,6.2-14.938.919-2.125,14.161-34.173,15.213-36.817.244-.615-1.416-.8-7.066-.8-8.775,0-7.5-1.182-12.873,11.9C184.627,51,182.245,56.762,181.66,58.15L180.6,60.673l-2.466-6.06c-1.356-3.333-3.876-9.388-5.6-13.455l-3.133-7.4-8.57-.18c-6.765-.142-8.5-.007-8.228.643m120.336-.195c-.148.147-.268,10.638-.268,23.312V80.386h14.148V33.762h-6.806a50.551,50.551,0,0,0-7.074.268m15.373.214c.19.442,1.347,3.119,2.572,5.949s5.468,12.669,9.429,21.865c8.817,20.467,7.053,18.407,15.567,18.187l7.005-.181,2.125-5.144c10.9-26.382,16.471-40.185,16.471-40.775,0-.468-2.372-.7-7.059-.7-8.49,0-7.166-1.461-13.547,14.951C318.3,55.024,316.01,60.45,315.8,60.45s-2.688-5.86-5.5-13.022-5.408-13.235-5.775-13.5c-1.243-.883-16.6-.587-16.214.311M369.761,46.61c4.048,3.878,3.536,4.194-6.8,4.194-10.207,0-10.38-.088-7.136-3.628,3.474-3.791,10.28-4.067,13.935-.566M95.82,62.879c0,6.9-13.916,10.562-16.321,4.3-1.9-4.956.644-6.54,10.694-6.658l5.627-.066v2.429" fill="#919191" fill-rule="evenodd"/>
  </g>
</svg>

<svg id="svg" xmlns="http://www.w3.org/2000/svg" xmlns:xlink="http://www.w3.org/1999/xlink" width="400" height="115.11254019292603" viewBox="0, 0, 400,115.11254019292603" version="1.1"><g id="svgg"><path id="path0" d="M5.145 47.910 L 5.145 80.386 19.453 80.376 C 39.503 80.363,45.311 78.702,53.325 70.688 C 71.134 52.879,62.827 22.888,38.264 16.310 C 36.019 15.709,30.536 15.447,20.096 15.442 L 5.145 15.434 5.145 47.910 M116.399 22.830 L 116.399 30.225 123.794 30.225 L 131.190 30.225 131.190 22.830 L 131.190 15.434 123.794 15.434 L 116.399 15.434 116.399 22.830 M136.977 47.910 L 136.977 80.386 144.051 80.386 L 151.125 80.386 151.125 47.910 L 151.125 15.434 144.051 15.434 L 136.977 15.434 136.977 47.910 M211.576 47.910 L 211.576 80.386 218.650 80.386 L 225.723 80.386 225.723 70.922 L 225.723 61.459 222.693 58.382 L 219.662 55.305 235.876 55.305 L 252.090 55.305 252.090 67.846 L 252.090 80.386 259.164 80.386 L 266.238 80.386 266.238 47.910 L 266.238 15.434 259.164 15.434 L 252.090 15.434 252.090 24.898 L 252.090 34.361 255.121 37.438 L 258.151 40.514 241.937 40.514 L 225.723 40.514 225.723 27.974 L 225.723 15.434 218.650 15.434 L 211.576 15.434 211.576 47.910 M272.669 22.830 L 272.669 30.225 279.743 30.225 L 286.817 30.225 286.817 22.830 L 286.817 15.434 279.743 15.434 L 272.669 15.434 272.669 22.830 M36.656 29.687 C 44.590 33.456,47.910 38.736,47.910 47.588 C 47.910 60.803,39.714 68.137,24.920 68.160 L 19.936 68.167 19.936 51.171 L 19.936 34.175 16.559 30.880 L 13.183 27.585 23.151 27.796 C 32.330 27.990,33.399 28.140,36.656 29.687 M81.818 33.483 C 74.246 34.811,64.952 42.804,64.952 47.989 C 64.952 49.266,79.849 48.071,81.358 46.674 C 84.650 43.623,91.852 44.004,94.499 47.369 C 96.938 50.470,96.582 50.622,86.013 50.981 C 70.160 51.521,64.282 55.343,64.323 65.087 C 64.378 78.303,83.381 86.237,93.860 77.419 L 95.820 75.770 95.820 78.099 L 95.820 80.428 103.055 80.246 L 110.289 80.064 110.289 63.987 C 110.289 45.258,109.972 43.785,104.921 39.060 C 99.787 34.258,90.365 31.983,81.818 33.483 M356.998 33.449 C 335.662 37.959,331.901 68.600,351.506 78.192 C 364.628 84.612,386.475 77.649,386.493 67.042 C 386.497 64.717,374.029 64.843,370.556 67.203 C 364.795 71.118,356.740 68.668,354.027 62.176 L 353.021 59.768 369.597 59.808 C 378.714 59.829,386.562 59.838,387.037 59.827 C 389.196 59.777,386.671 48.371,383.357 43.207 C 378.357 35.416,367.212 31.290,356.998 33.449 M116.399 56.913 L 116.399 80.428 123.633 80.246 L 130.868 80.064 130.868 56.913 L 130.868 33.762 123.633 33.580 L 116.399 33.398 116.399 56.913 M152.601 34.225 C 152.790 34.678,155.316 40.257,158.216 46.624 C 161.116 52.990,165.618 62.939,168.221 68.733 L 172.954 79.266 169.359 88.025 C 167.382 92.843,165.623 97.146,165.450 97.588 C 165.209 98.204,166.918 98.389,172.761 98.379 L 180.386 98.365 185.476 85.999 C 188.276 79.198,191.067 72.476,191.679 71.061 C 192.598 68.936,205.840 36.888,206.892 34.244 C 207.136 33.629,205.476 33.441,199.826 33.441 C 191.051 33.441,192.330 32.259,186.953 45.338 C 184.627 50.997,182.245 56.762,181.660 58.150 L 180.597 60.673 178.131 54.613 C 176.775 51.280,174.255 45.225,172.532 41.158 L 169.399 33.762 160.829 33.582 C 154.064 33.440,152.331 33.575,152.601 34.225 M272.937 34.030 C 272.789 34.177,272.669 44.668,272.669 57.342 L 272.669 80.386 279.743 80.386 L 286.817 80.386 286.817 57.074 L 286.817 33.762 280.011 33.762 C 276.267 33.762,273.084 33.883,272.937 34.030 M288.310 34.244 C 288.500 34.686,289.657 37.363,290.882 40.193 C 292.107 43.023,296.350 52.862,300.311 62.058 C 309.128 82.525,307.364 80.465,315.878 80.245 L 322.883 80.064 325.008 74.920 C 335.903 48.538,341.479 34.735,341.479 34.145 C 341.479 33.677,339.107 33.441,334.420 33.441 C 325.930 33.441,327.254 31.980,320.873 48.392 C 318.295 55.024,316.010 60.450,315.796 60.450 C 315.582 60.450,313.108 54.590,310.299 47.428 C 307.489 40.265,304.891 34.193,304.524 33.933 C 303.281 33.050,287.925 33.346,288.310 34.244 M369.761 46.610 C 373.809 50.488,373.297 50.804,362.962 50.804 C 352.755 50.804,352.582 50.716,355.826 47.176 C 359.300 43.385,366.106 43.109,369.761 46.610 M95.820 62.879 C 95.820 69.779,81.904 73.441,79.499 67.174 C 77.598 62.218,80.143 60.634,90.193 60.516 L 95.820 60.450 95.820 62.879 " stroke="none" fill="#000000" fill-rule="evenodd"></path></g></svg>
